X:1547
T:Dinkey's Reel
O:england
C:Trad
R:Reel
M:C
K:D
L:1/8
ed |: c2 Bc ABcd | egfd edBd | gB (3BBB gBaB | gB (3BBB gfed |
Rc2 Bc ABcd | egfd edBd | Rg2 ge dfed |1 cABG A2 ed :|2 cABG ABce |
|: aA (3AAA aAbA | aA (3AAA agef | gB (3BBB gBaB | gB (3BBB gefg |
|1 aA (3AAA aAbA | aA (3AAA agef | gfge dfed | Rc2 Bc ABce :|
|2 Ra2 fa Rg2 eg | Rf2 df edef | gfge dfed | Rc2 Bc A2 ||


